X:1
T:Title
%%score { ( 1 3 ) | ( 2 4 ) }
L:1/8
M:6/8
K:Ab
V:1 treble nm="Grand Piano"
V:3 treble 
V:2 bass 
V:4 bass 
V:1
 z6[Q:1/4=100] | z3 .F3 | G2 A .[CB]3 | .[E,CE]3 A2- [CA] | G2- [DG-] [DG]2 E | %5
 [DE]2 [DB] [DB]2 [C=A] | B2- [DB-] [DB]2 E | [CE]2 [Ec] [Ec]2 [=D_c] | c2- [Ec-] [Ec]2 E | %9
 z3 .F3 | G2 A .[CB]3 | .[E,CE]3 A2- [CA] | G6 | [EB]2 [Ec] [EB]2 [eg] | [eb]2 [ec'] [eb]2 [EG] | %15
 [=DB]2 [CDA] [B,DG]2 [A,DF] | EEE EEE | [Ec]3 [DB]3 | [Ec]3 [DB]3 | .B3 z3 | %20
[M:5/8][K:bass] [CE]-[CE]- [CE]3 |[M:1/8] z |[M:3/4] z2[K:treble] [EBd] .[EBd]3 | z2 d d2 B, | %24
 B,2 A A2 B, | z2 A .A3 | [Ec]3 [DB]3 | [Ec]3 [DB]3 | B2 AA z2 |[M:5/8][K:bass] [CE]-[CE]- [CE]3 | %30
[M:1/8][K:treble] [A,CE] |[M:3/4] [A,DF]2 [B,EG] [A,EA]2 B | c2 [=Ec] [Fc]2 [FB] | [EA]3 [DG]3 | %34
[M:5/8] [CA]-[CA]- [CA]3 |] %35
V:2
 z3 z2 E | z2 F [E,,E,]3 | [A,,E,]3 z[K:treble] AF | z2 C [E,,E,]3 | [B,,E,]3 z2 D | %5
 [G,,E,]3 [E,,E,]3 | [G,,E,]3 z2 D | [A,,E,]3 [E,,E,]3 | [A,,E,]3 z2 C | z2 F [E,,E,]3 | %10
 [A,,E,]3 z[K:treble] AF | z2 C [A,,E,]3 | .[B,,E,B,]3 z2 E | %13
 [B,,G,]2 [B,,A,] [B,,G,]2[K:treble] [B,G] | [B,G]2 [B,A] [B,G]2[K:bass] [B,,B,] | %15
 [B,,F,]2 B,, B,,2 B,, | [E,G,]6 | E,,2 E, G,2 E, | E,,2 E, G,2 E, | [A,,E,]3 z[K:treble] GF | %20
[M:5/8][K:bass] A,,2 E, A,2 |[M:1/8] A, |[M:3/4] A,2 G, G,2 A, | z2[K:treble] E .[EG]3 | %24
 z2 [A,E] .[A,E]3 | z2 E E2 E | E,,2 E, G,2 E, | E,,2 E, G,2 E, | [A,,E,]4[K:treble] GF | %29
[M:5/8][K:bass] A,,2 E, A,2 |[M:1/8] A,, |[M:3/4] D,2 D, C,2 [E,G,E] | %32
 [A,E]2 [C,G,] [D,F,]2 [D,D] | [E,C]3 [E,B,]3 |[M:5/8] [A,,A,]-[A,,A,]- [A,,A,]3 |] %35
V:3
 x6 | .[E,CE]3 C2- [CG] | C3 z3 | z3 .C3 | .D3 z3 | x6 | .D3 z3 | x6 | .E3 z3 | .[E,CE]3 C2- [CG] | %10
 C3 z3 | z3 .C3 | z2 B, B,2 G | x6 | x6 | x6 | x6 | x6 | x6 | C2- [CA] .[_CA]3 | %20
[M:5/8][K:bass] E,2 z z2 |[M:1/8] x |[M:3/4] x2[K:treble] x4 | x6 | x6 | C6 | x6 | x6 | C3 _C3 | %29
[M:5/8][K:bass] E,2 z z2 |[M:1/8][K:treble] x |[M:3/4] x6 | x6 | x6 |[M:5/8] x5 |] %35
V:4
 x6 | A,,3 z3 | z3 [E,,E,]3[K:treble] | A,,3 z3 | z3 [E,,E,]3 | x6 | z3 [E,,E,]3 | x6 | %8
 z3 [E,,E,]3 | A,,3 z3 | z3 [E,,E,]3[K:treble] | A,,3 z3 | z3 [B,,E,]3 | x5[K:treble] x | %14
 x5[K:bass] x | x6 | x6 | x6 | x6 | z3 [A,,=D,]3[K:treble] |[M:5/8][K:bass] x5 |[M:1/8] x | %22
[M:3/4] x6 | B,6[K:treble] | x6 | x6 | x6 | x6 | z2 z [A,,=D,]3[K:treble] |[M:5/8][K:bass] x5 | %30
[M:1/8] x |[M:3/4] x6 | x6 | x6 |[M:5/8] x5 |] %35

